static/images/footer-logo.svg

<svg fill="none" height="34" viewBox="0 0 131 34" width="131" xmlns="http://www.w3.org/2000/svg"><g fill="#fff"><path d="m50.3022 27.8159c-1.8272 0-3.3776-.2861-4.6511-.8582-1.2551-.5722-2.2056-1.3658-2.8516-2.3809-.6275-1.0152-.9413-2.1779-.9413-3.4884h4.402c0 .7752.3137 1.4581.9413 2.0487.6459.5722 1.6795.8583 3.1007.8583 1.2551 0 2.2148-.24 2.8793-.7198.6644-.4984.9966-1.1351.9966-1.9103 0-.646-.2768-1.1536-.8305-1.5227-.5537-.3876-1.4489-.6368-2.6855-.7475l-1.5227-.1384c-2.0118-.1661-3.6175-.7844-4.8172-1.8549-1.1997-1.089-1.7995-2.5378-1.7995-4.3466 0-1.292.3045-2.4086.9136-3.34992.6275-.9413 1.495-1.66111 2.6024-2.15945 1.1074-.51679 2.4178-.77518 3.9313-.77518 1.5873 0 2.9438.27685 4.0697.83055 1.1443.55371 2.021 1.32889 2.6301 2.32556.6091.97824.9136 2.12254.9136 3.43294h-4.4296c0-.7382-.2677-1.3842-.8029-1.9379s-1.3289-.8306-2.3809-.8306c-1.0151 0-1.7719.2492-2.2702.7475-.4983.4799-.7475 1.052-.7475 1.7165 0 .5721.1938 1.0705.5814 1.495.406.4245 1.0797.6737 2.021.7475l1.5504.1384c1.4765.1292 2.7777.4522 3.9036.969 1.1258.4983 2.0025 1.1905 2.6301 2.0764.646.8675.969 1.9287.969 3.1838 0 1.292-.3415 2.427-1.0244 3.4053-.6644.9597-1.615 1.7072-2.8516 2.2425-1.2366.5352-2.7131.8028-4.4296.8028z"/><path d="m67.6052 27.8159c-1.292 0-2.4363-.2215-3.4329-.6644-.9783-.443-1.7996-1.0336-2.464-1.7719-.6645-.7567-1.1628-1.5965-1.495-2.5193-.3322-.9413-.4984-1.9011-.4984-2.8793v-.5537c0-.9967.1662-1.9656.4984-2.9069s.8305-1.7811 1.495-2.5194c.6644-.7383 1.4673-1.3196 2.4086-1.7441.9597-.443 2.0671-.6645 3.3222-.6645 1.6242 0 2.99.3691 4.0974 1.1074 1.1259.7198 1.9841 1.6704 2.5747 2.8516.5907 1.1812.886 2.4547.886 3.8205v1.495h-11.1018c.1477 1.0336.5168 1.855 1.1074 2.464.6091.5906 1.4766.886 2.6024.886.7937 0 1.4489-.1477 1.9657-.443.5352-.3138.8951-.7106 1.0797-1.1905h4.0697c-.3322 1.5504-1.1351 2.8147-2.4086 3.7929-1.2551.9598-2.8239 1.4396-4.7065 1.4396zm-.1661-12.6244c-.9597 0-1.7442.2768-2.3532.8305-.5906.5353-.969 1.3105-1.1351 2.3256h6.8105c-.1476-1.0151-.5075-1.7903-1.0797-2.3256-.5537-.5537-1.3012-.8305-2.2425-.8305z"/><path d="m77.1019 27.2899v-15.1715h3.516v3.876c.6091-2.8978 2.3163-4.3466 5.1218-4.3466h.1938c1.7534 0 3.1007.5814 4.042 1.7441.9413 1.1444 1.4119 2.8885 1.4119 5.2325v8.6655h-4.4296v-8.9146c0-.8121-.2399-1.4766-.7198-1.9934-.4799-.5167-1.1259-.7751-1.938-.7751-.8305 0-1.5042.2676-2.021.8028-.4983.5168-.7475 1.1997-.7475 2.0487v8.8316z"/><path d="m100.588 27.7882c-1.4207 0-2.6758-.3322-3.7647-.9966-1.0705-.6829-1.9103-1.6058-2.5194-2.7685-.6091-1.1628-.9136-2.4733-.9136-3.9313v-.6368c0-1.4581.2861-2.7777.8582-3.959.5722-1.1812 1.3843-2.1133 2.4363-2.7962 1.0705-.6829 2.3164-1.0243 3.7372-1.0243 2.215 0 3.849.8397 4.901 2.5193v-7.11508h4.457v20.21018h-3.516v-3.1838c-.498 1.1997-1.237 2.1133-2.215 2.7408-.978.6276-2.132.9413-3.461.9413zm1.108-3.7098c1.015 0 1.892-.3414 2.63-1.0243s1.107-1.6519 1.107-2.907v-1.0243c0-.7937-.175-1.4673-.526-2.021-.35-.5722-.812-1.0059-1.384-1.3012-.572-.2954-1.19-.443-1.855-.443-1.126 0-2.0485.406-2.7684 1.2181-.7198.8121-1.0797 1.8734-1.0797 3.1838 0 1.3289.3599 2.381 1.0797 3.1561.7383.7752 1.6704 1.1628 2.7964 1.1628z"/><path d="m115.403 10.6234c-.83 0-1.448-.2122-1.854-.63673-.388-.44297-.582-.99667-.582-1.66111 0-.68291.194-1.23661.582-1.66112.406-.44296 1.024-.66444 1.854-.66444.831 0 1.44.22148 1.828.66444.406.42451.609.97821.609 1.66112 0 .66444-.203 1.21814-.609 1.66111-.388.42453-.997.63673-1.828.63673zm-1.716 16.6665v-11.9046h-2.021v-3.2669h6.451v15.1715z"/><path d="m128.277 27.4837c-1.532 0-2.769-.1846-3.71-.5537-.941-.3876-1.634-1.0244-2.077-1.9103-.424-.9044-.636-2.1225-.636-3.6544v-6.0077h-2.298v-3.2392h2.298v-4.09738h4.125v4.09738h4.429v3.2392h-4.429v6.1738c0 .7198.184 1.2735.553 1.6611.388.3691.933.5537 1.634.5537h2.242v3.7375z"/></g><rect fill="#e63b2a" height="34" rx="8" width="34"/><path d="m11.5537 11.4066 9.02-3.01004c4.05-1.34999 6.25.86 4.91 4.90994l-3.01 9.02c-2.02 6.07-5.34 6.07-7.36 0l-.89-2.68-2.68-.89c-6.05994-2.01-6.05994-5.32.01-7.3499z" fill="#fff"/></svg>

<svg width="131" height="34" viewBox="0 0 131 34" fill="none" xmlns="http://www.w3.org/2000/svg">
<path d="M50.3022 27.8159C48.475 27.8159 46.9246 27.5298 45.6511 26.9577C44.396 26.3855 43.4455 25.5919 42.7995 24.5768C42.172 23.5616 41.8582 22.3989 41.8582 21.0884H46.2602C46.2602 21.8636 46.5739 22.5465 47.2015 23.1371C47.8474 23.7093 48.881 23.9954 50.3022 23.9954C51.5573 23.9954 52.517 23.7554 53.1815 23.2756C53.8459 22.7772 54.1781 22.1405 54.1781 21.3653C54.1781 20.7193 53.9013 20.2117 53.3476 19.8426C52.7939 19.455 51.8987 19.2058 50.6621 19.0951L49.1394 18.9567C47.1276 18.7906 45.5219 18.1723 44.3222 17.1018C43.1225 16.0128 42.5227 14.564 42.5227 12.7552C42.5227 11.4632 42.8272 10.3466 43.4363 9.40528C44.0638 8.46398 44.9313 7.74417 46.0387 7.24583C47.1461 6.72904 48.4565 6.47065 49.97 6.47065C51.5573 6.47065 52.9138 6.7475 54.0397 7.3012C55.184 7.85491 56.0607 8.63009 56.6698 9.62676C57.2789 10.605 57.5834 11.7493 57.5834 13.0597H53.1538C53.1538 12.3215 52.8861 11.6755 52.3509 11.1218C51.8157 10.5681 51.022 10.2912 49.97 10.2912C48.9549 10.2912 48.1981 10.5404 47.6998 11.0387C47.2015 11.5186 46.9523 12.0907 46.9523 12.7552C46.9523 13.3273 47.1461 13.8257 47.5337 14.2502C47.9397 14.6747 48.6134 14.9239 49.5547 14.9977L51.1051 15.1361C52.5816 15.2653 53.8828 15.5883 55.0087 16.1051C56.1345 16.6034 57.0112 17.2956 57.6388 18.1815C58.2848 19.049 58.6078 20.1102 58.6078 21.3653C58.6078 22.6573 58.2663 23.7923 57.5834 24.7706C56.919 25.7303 55.9684 26.4778 54.7318 27.0131C53.4952 27.5483 52.0187 27.8159 50.3022 27.8159Z" fill="white"/>
<path d="M67.6052 27.8159C66.3132 27.8159 65.1689 27.5944 64.1723 27.1515C63.194 26.7085 62.3727 26.1179 61.7083 25.3796C61.0438 24.6229 60.5455 23.7831 60.2133 22.8603C59.8811 21.919 59.7149 20.9592 59.7149 19.981V19.4273C59.7149 18.4306 59.8811 17.4617 60.2133 16.5204C60.5455 15.5791 61.0438 14.7393 61.7083 14.001C62.3727 13.2627 63.1756 12.6814 64.1169 12.2569C65.0766 11.8139 66.184 11.5924 67.4391 11.5924C69.0633 11.5924 70.4291 11.9615 71.5365 12.6998C72.6624 13.4196 73.5206 14.3702 74.1112 15.5514C74.7019 16.7326 74.9972 18.0061 74.9972 19.3719V20.8669H63.8954C64.0431 21.9005 64.4122 22.7219 65.0028 23.3309C65.6119 23.9215 66.4794 24.2169 67.6052 24.2169C68.3989 24.2169 69.0541 24.0692 69.5709 23.7739C70.1061 23.4601 70.466 23.0633 70.6506 22.5834H74.7203C74.3881 24.1338 73.5852 25.3981 72.3117 26.3763C71.0566 27.3361 69.4878 27.8159 67.6052 27.8159ZM67.4391 15.1915C66.4794 15.1915 65.6949 15.4683 65.0859 16.022C64.4953 16.5573 64.1169 17.3325 63.9508 18.3476H70.7613C70.6137 17.3325 70.2538 16.5573 69.6816 16.022C69.1279 15.4683 68.3804 15.1915 67.4391 15.1915Z" fill="white"/>
<path d="M77.1019 27.2899V12.1184H80.6179V15.9944C81.227 13.0966 82.9342 11.6478 85.7397 11.6478H85.9335C87.6869 11.6478 89.0342 12.2292 89.9755 13.3919C90.9168 14.5363 91.3874 16.2804 91.3874 18.6244V27.2899H86.9578V18.3753C86.9578 17.5632 86.7179 16.8987 86.238 16.3819C85.7581 15.8652 85.1121 15.6068 84.3 15.6068C83.4695 15.6068 82.7958 15.8744 82.279 16.4096C81.7807 16.9264 81.5315 17.6093 81.5315 18.4583V27.2899H77.1019Z" fill="white"/>
<path d="M100.588 27.7882C99.1673 27.7882 97.9122 27.456 96.8233 26.7916C95.7528 26.1087 94.913 25.1858 94.3039 24.0231C93.6948 22.8603 93.3903 21.5498 93.3903 20.0918V19.455C93.3903 17.9969 93.6764 16.6773 94.2485 15.496C94.8207 14.3148 95.6328 13.3827 96.6848 12.6998C97.7553 12.0169 99.0012 11.6755 100.422 11.6755C102.637 11.6755 104.271 12.5152 105.323 14.1948V7.07972H109.78V27.2899H106.264V24.1061C105.766 25.3058 105.027 26.2194 104.049 26.8469C103.071 27.4745 101.917 27.7882 100.588 27.7882ZM101.696 24.0784C102.711 24.0784 103.588 23.737 104.326 23.0541C105.064 22.3712 105.433 21.4022 105.433 20.1471V19.1228C105.433 18.3291 105.258 17.6555 104.907 17.1018C104.557 16.5296 104.095 16.0959 103.523 15.8006C102.951 15.5052 102.333 15.3576 101.668 15.3576C100.542 15.3576 99.6195 15.7636 98.8996 16.5757C98.1798 17.3878 97.8199 18.4491 97.8199 19.7595C97.8199 21.0884 98.1798 22.1405 98.8996 22.9156C99.6379 23.6908 100.57 24.0784 101.696 24.0784Z" fill="white"/>
<path d="M115.403 10.6234C114.573 10.6234 113.955 10.4112 113.549 9.98667C113.161 9.5437 112.967 8.99 112.967 8.32556C112.967 7.64265 113.161 7.08895 113.549 6.66444C113.955 6.22148 114.573 6 115.403 6C116.234 6 116.843 6.22148 117.231 6.66444C117.637 7.08895 117.84 7.64265 117.84 8.32556C117.84 8.99 117.637 9.5437 117.231 9.98667C116.843 10.4112 116.234 10.6234 115.403 10.6234ZM113.687 27.2899V15.3853H111.666V12.1184H118.117V27.2899H113.687Z" fill="white"/>
<path d="M128.277 27.4837C126.745 27.4837 125.508 27.2991 124.567 26.93C123.626 26.5424 122.933 25.9056 122.49 25.0197C122.066 24.1153 121.854 22.8972 121.854 21.3653V15.3576H119.556V12.1184H121.854V8.02102H125.979V12.1184H130.408V15.3576H125.979V21.5314C125.979 22.2512 126.163 22.8049 126.532 23.1925C126.92 23.5616 127.465 23.7462 128.166 23.7462H130.408V27.4837H128.277Z" fill="white"/>
<rect width="34" height="34" rx="8" fill="#E63B2A"/>
<path d="M11.5537 11.4066L20.5737 8.39656C24.6237 7.04657 26.8237 9.25656 25.4837 13.3065L22.4737 22.3265C20.4537 28.3965 17.1337 28.3965 15.1137 22.3265L14.2237 19.6465L11.5437 18.7565C5.48376 16.7465 5.48376 13.4365 11.5537 11.4066Z" fill="white"/>
</svg>
